X:1
T:Title
%%score { 1 | 2 }
L:1/8
M:3/4
K:F
V:1 treble nm="Grand Piano"
V:2 bass 
V:1
 z2 z2[Q:1/4=100] FG | A2 A2 Bd | c2 A2 AF | [CEG]3 [B,EG] [A,F][CEG] |[M:2/4] A4 |[M:1/4] FG | %6
[M:3/4] A3 A Bd | c2 A2 AF | [EG]3 [GB] [FA][EG] |[M:2/4] F4 |] %10
V:2
 z2 z2 [F,A,][F,B,F] | [F,CF]2 [F,CF]2 [F,DF][F,B,F] | [F,A,F]2 [F,CF]2 [F,CF][F,A,] | %3
 C,3 C, C,C, |[M:2/4] [F,CF]4 |[M:1/4] [F,A,][F,B,F] |[M:3/4] [F,CF]3 [F,CF] [F,DF][F,B,F] | %7
 [F,A,F]2 [F,CF]2 [F,CF][F,A,] | [C,C]3 [C,C] [C,C][C,C] |[M:2/4] [F,A,]4 |] %10

